modules/stroke-7/icons/chat.svg

<?xml version="1.0" encoding="utf-8"?>
<!-- Generated by IcoMoon.io -->
<!DOCTYPE svg PUBLIC "-//W3C//DTD SVG 1.1//EN" "http://www.w3.org/Graphics/SVG/1.1/DTD/svg11.dtd">
<svg version="1.1" xmlns="http://www.w3.org/2000/svg" xmlns:xlink="http://www.w3.org/1999/xlink" width="32" height="32" viewBox="0 0 32 32">
<g id="icomoon-ignore">
</g>
<path d="M21.331 10.669v-7.997h-18.659v14.394h7.997v7.997h11.063l4.265 4.264h0.665v-4.264h2.666v-14.394h-7.997zM3.738 16v-12.262h16.527v6.931h-9.596v5.331h-6.931zM28.262 23.997h-2.666v3.422l-3.423-3.422h-10.439v-12.262h16.527v12.262z" fill="#000000"></path>
</svg>

<svg xmlns="http://www.w3.org/2000/svg" width="32" height="32" viewBox="0 0 32 32"><path d="M21.331 10.669V2.672H2.672v14.394h7.997v7.997h11.063l4.265 4.264h.665v-4.264h2.666V10.669h-7.997zM3.738 16V3.738h16.527v6.931h-9.596V16H3.738zm24.524 7.997h-2.666v3.422l-3.423-3.422H11.734V11.735h16.527v12.262z"/></svg>
